findly-builder/apps/searchassist/src/assets/icons/onboarding/acid-surface.svg

<svg width="20" height="20" viewBox="0 0 20 20" fill="none" xmlns="http://www.w3.org/2000/svg">
<path d="M6.66732 10.4165C6.66732 10.8585 6.49172 11.2824 6.17916 11.595C5.8666 11.9075 5.44268 12.0831 5.00065 12.0831C4.55862 12.0831 4.1347 11.9075 3.82214 11.595C3.50958 11.2824 3.33398 10.8585 3.33398 10.4165C3.33398 9.49986 5.00065 7.5 5.00065 7.5C5.00065 7.5 6.66732 9.49986 6.66732 10.4165Z" fill="#00C92C"/>
<path d="M17.5464 11.1832C17.3914 11.4085 17.1934 11.6011 16.9638 11.7497C16.7341 11.8983 16.4774 12.0002 16.2084 12.0493C15.9393 12.0985 15.6632 12.094 15.3958 12.0362C15.1285 11.9784 14.8752 11.8683 14.6505 11.7123L8.55052 7.49984L5.92969 5.69147L8.23802 2.229C8.24858 2.23296 8.25842 2.23858 8.26719 2.24567L15.8755 7.49984L17.0172 8.28734C17.2422 8.44263 17.4344 8.64075 17.5828 8.87038C17.7312 9.1 17.8329 9.35662 17.882 9.62557C17.9312 9.89452 17.9268 10.1705 17.8692 10.4378C17.8116 10.705 17.7019 10.9583 17.5464 11.1832Z" fill="#35C1F1"/>
<path d="M17.5466 11.1833C17.3916 11.4087 17.1936 11.6012 16.964 11.7499C16.7344 11.8985 16.4777 12.0003 16.2086 12.0495C15.9396 12.0987 15.6634 12.0942 15.3961 12.0364C15.1288 11.9785 14.8755 11.8685 14.6508 11.7125L8.55078 7.5H15.8758L17.0174 8.2875C17.2425 8.44279 17.4347 8.64092 17.5831 8.87054C17.7314 9.10017 17.8331 9.35679 17.8823 9.62573C17.9314 9.89468 17.9271 10.1707 17.8695 10.4379C17.8119 10.7052 17.7022 10.9585 17.5466 11.1833Z" fill="#00C92C"/>
<path d="M5.83235 6.66671C5.68107 6.66653 5.53268 6.62516 5.40312 6.54706C5.27355 6.46895 5.16769 6.35705 5.09689 6.22335C5.02609 6.08965 4.99302 5.9392 5.00123 5.78814C5.00943 5.63707 5.0586 5.49109 5.14347 5.36585L5.2395 5.22425L7.63737 1.6248C7.75942 1.44127 7.94922 1.31356 8.16521 1.26964C8.38121 1.22572 8.60581 1.26917 8.78985 1.39046C8.97388 1.51175 9.10237 1.70102 9.14719 1.91683C9.192 2.13264 9.14949 2.35742 9.02896 2.54196L8.93294 2.68763L6.52286 6.30091C6.44647 6.41371 6.34356 6.50605 6.22318 6.56983C6.10279 6.63361 5.96859 6.66687 5.83235 6.66671Z" fill="#50E6FF"/>
<path d="M15.8333 11.2502C16.2936 11.2502 16.6667 10.8771 16.6667 10.4168C16.6667 9.95659 16.2936 9.5835 15.8333 9.5835C15.3731 9.5835 15 9.95659 15 10.4168C15 10.8771 15.3731 11.2502 15.8333 11.2502Z" fill="#9AF5B2"/>
<path d="M14.1667 9.16683C14.3968 9.16683 14.5833 8.98028 14.5833 8.75016C14.5833 8.52004 14.3968 8.3335 14.1667 8.3335C13.9365 8.3335 13.75 8.52004 13.75 8.75016C13.75 8.98028 13.9365 9.16683 14.1667 9.16683Z" fill="#9AF5B2"/>
<path d="M10.0933 14.1665C10.0494 14.1673 10.0068 14.1818 9.97149 14.2079C9.93616 14.234 9.90983 14.2704 9.89615 14.3122C9.81004 14.5559 9.66806 14.7761 9.48159 14.9551C9.29511 15.1341 9.06932 15.267 8.82229 15.3431C8.57525 15.4192 8.31383 15.4364 8.05895 15.3934C7.80407 15.3503 7.5628 15.2482 7.35446 15.0952C7.33142 15.0792 7.30538 15.0681 7.27791 15.0625C7.25044 15.0569 7.22213 15.057 7.19468 15.0627C7.16723 15.0683 7.14122 15.0795 7.11823 15.0956C7.09524 15.1116 7.07574 15.1321 7.06093 15.1559C6.78924 15.5565 6.40684 15.8694 5.96037 16.0563C5.51391 16.2433 5.02268 16.2963 4.54663 16.2088C4.07057 16.1213 3.63026 15.8972 3.27942 15.5637C2.92858 15.2303 2.68237 14.8019 2.57083 14.3309C2.56098 14.2848 2.53575 14.2434 2.4993 14.2136C2.46284 14.1837 2.41732 14.1671 2.3702 14.1665H1.66667C1.55616 14.1665 1.45018 14.2104 1.37204 14.2885C1.2939 14.3667 1.25 14.4727 1.25 14.5832V17.0832C1.25 17.3042 1.3378 17.5161 1.49408 17.6724C1.65036 17.8287 1.86232 17.9165 2.08333 17.9165H17.9167C18.1377 17.9165 18.3496 17.8287 18.5059 17.6724C18.6622 17.5161 18.75 17.3042 18.75 17.0832V14.5832C18.75 14.4727 18.7061 14.3667 18.628 14.2885C18.5498 14.2104 18.4438 14.1665 18.3333 14.1665H10.0933Z" fill="url(#paint0_linear_629_33024)"/>
<defs>
<linearGradient id="paint0_linear_629_33024" x1="8.35167" y1="11.3411" x2="12.9713" y2="24.0332" gradientUnits="userSpaceOnUse">
<stop stop-color="#6D6D6D"/>
<stop offset="0.126" stop-color="#626262"/>
<stop offset="0.987" stop-color="#464646"/>
<stop offset="0.998" stop-color="#454545"/>
</linearGradient>
</defs>
</svg>

<svg width="20" height="20" fill="none" xmlns="http://www.w3.org/2000/svg"><path d="M6.667 10.416a1.667 1.667 0 0 1-3.333 0C3.334 9.5 5.001 7.5 5.001 7.5s1.666 2 1.666 2.916Z" fill="#00C92C"/><path d="M17.546 11.183a2.077 2.077 0 0 1-2.896.53L8.55 7.5 5.93 5.69l2.308-3.46c.01.004.02.01.03.017L15.874 7.5l1.142.787a2.08 2.08 0 0 1 .53 2.896Z" fill="#35C1F1"/><path d="M17.547 11.183a2.078 2.078 0 0 1-2.896.53L8.55 7.5h7.325l1.141.787a2.08 2.08 0 0 1 .53 2.896Z" fill="#00C92C"/><path d="M5.832 6.667a.833.833 0 0 1-.689-1.301l.096-.142 2.398-3.6a.833.833 0 0 1 1.392.918l-.096.146L6.523 6.3a.833.833 0 0 1-.69.366Z" fill="#50E6FF"/><path d="M15.833 11.25a.833.833 0 1 0 0-1.667.833.833 0 0 0 0 1.667Zm-1.666-2.083a.417.417 0 1 0 0-.833.417.417 0 0 0 0 .833Z" fill="#9AF5B2"/><path d="M10.093 14.166a.212.212 0 0 0-.197.146 1.656 1.656 0 0 1-2.542.783.206.206 0 0 0-.293.06 2.493 2.493 0 0 1-4.49-.824.208.208 0 0 0-.2-.165h-.704a.417.417 0 0 0-.417.417v2.5a.833.833 0 0 0 .833.834h15.834a.833.833 0 0 0 .833-.834v-2.5a.417.417 0 0 0-.417-.417h-8.24Z" fill="url(#a)"/><defs><linearGradient id="a" x1="8.352" y1="11.341" x2="12.971" y2="24.033" gradientUnits="userSpaceOnUse"><stop stop-color="#6D6D6D"/><stop offset=".126" stop-color="#626262"/><stop offset=".987" stop-color="#464646"/><stop offset=".998" stop-color="#454545"/></linearGradient></defs></svg>
